X: 21527
T: Kilcar, The
R: mazurka
M: 3/4
K: Gmajor
|:a/|b>g d2 B2|G>B e>G B>g|f>d (3cdc A2|G>B d>G B>g|
b>g d2 c2|A>c e>^d (3efg|f>e (3d^cd f2|a2 g2- g3/2:|
|:c/|B>d g2 e2|f>g a3 g|f>g e2 f2|g>e d3 c|
B>d g2 e2|f>g a3 g|f>g e2 f2|a2 g2- g3/2:|

